pistes-carto/pics/polka_dot_vineyard.svg

<?xml version="1.0" encoding="UTF-8" standalone="no"?>
<svg
   xmlns:dc="http://purl.org/dc/elements/1.1/"
   xmlns:cc="http://creativecommons.org/ns#"
   xmlns:rdf="http://www.w3.org/1999/02/22-rdf-syntax-ns#"
   xmlns:svg="http://www.w3.org/2000/svg"
   xmlns="http://www.w3.org/2000/svg"
   xmlns:sodipodi="http://sodipodi.sourceforge.net/DTD/sodipodi-0.dtd"
   xmlns:inkscape="http://www.inkscape.org/namespaces/inkscape"
   width="32"
   height="32"
   viewBox="0 0 8.4666665 8.4666669"
   version="1.1"
   id="svg8"
   inkscape:version="1.0.2 (e86c870879, 2021-01-15)"
   sodipodi:docname="polka_dot_vineyard.svg">
  <defs
     id="defs2">
    <clipPath
       id="clipPath">
      <rect
         x="0"
         y="0"
         width="256"
         height="256"
         id="rect19019" />
    </clipPath>
    <g
       fill="#ffffff"
       transform="matrix(0.125,0,0,0.125,-1.25,-1.125)"
       id="gSjwwvfjjbhu"
       style="">
      <g
         id="g19024">
        <path
           d="m 16,8.5 -0.584732,2.308304 -1.51622,2.090744 -2.090744,1.51622 L 9.5,15 7.1916954,14.415268 5.1009515,12.899048 3.5847318,10.808304 3,8.5 3.5108022,6.1916954 4.9038059,4.1009515 6.9699067,2.5847318 9.5,2 l 2.530093,0.5847318 2.066101,1.5162197 1.393004,2.0907439 z"
           id="path19022" />
      </g>
    </g>
  </defs>
  <sodipodi:namedview
     id="base"
     pagecolor="#ffffff"
     bordercolor="#666666"
     borderopacity="1.0"
     inkscape:pageopacity="0.0"
     inkscape:pageshadow="2"
     inkscape:zoom="11.2"
     inkscape:cx="36.666224"
     inkscape:cy="15.421957"
     inkscape:document-units="mm"
     inkscape:current-layer="layer1"
     inkscape:document-rotation="0"
     showgrid="false"
     units="px"
     inkscape:snap-center="false"
     inkscape:snap-object-midpoints="false"
     inkscape:snap-bbox="true"
     inkscape:bbox-nodes="true"
     inkscape:snap-bbox-edge-midpoints="true"
     inkscape:window-width="1877"
     inkscape:window-height="1016"
     inkscape:window-x="0"
     inkscape:window-y="0"
     inkscape:window-maximized="1" />
  <metadata
     id="metadata5">
    <rdf:RDF>
      <cc:Work
         rdf:about="">
        <dc:format>image/svg+xml</dc:format>
        <dc:type
           rdf:resource="http://purl.org/dc/dcmitype/StillImage" />
        <dc:title></dc:title>
      </cc:Work>
    </rdf:RDF>
  </metadata>
  <g
     inkscape:label="Calque 1"
     inkscape:groupmode="layer"
     id="layer1">
    <rect
       id="mapnik_workaround"
       width="8.4666662"
       height="8.4666662"
       fill="none"
       x="0.21166669"
       y="0"
       style="stroke-width:0.42333333;stroke-miterlimit:4;stroke-dasharray:none" />
    <path
       stroke-width="0.264583"
       stroke="#759e6c"
       opacity="0.38"
       d="m 0.34395835,0 v 1.3229166 m 0,1.5875 v 1.3229167 m 0,1.4552083 V 7.0114582 M 1.4022917,1.4552083 V 2.778125 m 0,1.4552083 v 1.3229166 m 0,1.5875 V 8.4666666 M 2.460625,0 v 1.3229166 m 0,1.5875 v 1.3229167 m 0,1.4552083 V 7.0114582 M 3.5189583,1.4552083 V 2.778125 m 0,1.4552083 v 1.3229166 m 0,1.5875 V 8.4666666 M 4.5772916,0 v 1.3229166 m 0,1.5875 v 1.3229167 m 0,1.4552083 V 7.0114582 M 5.635625,1.4552083 V 2.778125 m 0,1.4552083 v 1.3229166 m 0,1.5875 V 8.4666666 M 6.6939583,0 v 1.3229166 m 0,1.5875 v 1.3229167 m 0,1.4552083 V 7.0114582 M 7.7522916,1.4552083 V 2.778125 m 0,1.4552083 v 1.3229166 m 0,1.5875 v 1.3229167"
       id="path31668"
       style="opacity:1;fill:#000000;fill-opacity:1;stroke:#000000;stroke-width:0.42333333;stroke-miterlimit:4;stroke-dasharray:none;stroke-opacity:1" />
  </g>
  <g
     inkscape:groupmode="layer"
     id="layer2"
     inkscape:label="square"
     style="display:inline" />
</svg>

<?xml version="1.0" encoding="UTF-8"?>
<svg id="svg8" width="32" height="32" version="1.1" viewBox="0 0 8.4667 8.4667" xmlns="http://www.w3.org/2000/svg" xmlns:cc="http://creativecommons.org/ns#" xmlns:dc="http://purl.org/dc/elements/1.1/" xmlns:rdf="http://www.w3.org/1999/02/22-rdf-syntax-ns#">
 <defs id="defs2">
  <g id="gSjwwvfjjbhu" transform="matrix(.125 0 0 .125 -1.25 -1.125)" fill="#fff" style=""></g>
 </defs>
 <metadata id="metadata5">
  <rdf:RDF>
   <cc:Work rdf:about="">
    <dc:format>image/svg+xml</dc:format>
    <dc:type rdf:resource="http://purl.org/dc/dcmitype/StillImage"/>
    <dc:title/>
   </cc:Work>
  </rdf:RDF>
 </metadata>
 <g id="layer1" stroke-width=".42333">
  <rect id="mapnik_workaround" x=".21167" width="8.4667" height="8.4667" fill="none"/>
  <path id="path31668" d="m0.34396 0v1.3229m0 1.5875v1.3229m0 1.4552v1.3229m1.0583-5.5562v1.3229m0 1.4552v1.3229m0 1.5875v1.3229m1.0583-8.4667v1.3229m0 1.5875v1.3229m0 1.4552v1.3229m1.0583-5.5562v1.3229m0 1.4552v1.3229m0 1.5875v1.3229m1.0583-8.4667v1.3229m0 1.5875v1.3229m0 1.4552v1.3229m1.0583-5.5562v1.3229m0 1.4552v1.3229m0 1.5875v1.3229m1.0583-8.4667v1.3229m0 1.5875v1.3229m0 1.4552v1.3229m1.0583-5.5562v1.3229m0 1.4552v1.3229m0 1.5875v1.3229" stroke="#000"/>
 </g>
</svg>
